src/assets/outline/LinkCircle.svg

<svg width="24" height="24" viewBox="0 0 24 24"  xmlns="http://www.w3.org/2000/svg">
<path d="M7.93974 15.2599C7.84974 15.2599 7.76973 15.2499 7.67973 15.2099C6.86973 14.9099 6.18973 14.3199 5.75973 13.5499C4.75973 11.7499 5.37974 9.39992 7.12974 8.30992L9.46974 6.85991C10.3297 6.32991 11.3397 6.16994 12.2997 6.41994C13.2597 6.66994 14.0697 7.29992 14.5597 8.17992C15.5597 9.97992 14.9397 12.3299 13.1897 13.4199L12.9297 13.6099C12.5897 13.8499 12.1197 13.7699 11.8797 13.4399C11.6397 13.0999 11.7197 12.6299 12.0497 12.3899L12.3597 12.1699C13.4797 11.4699 13.8597 10.0199 13.2497 8.90993C12.9597 8.38993 12.4897 8.01992 11.9297 7.86992C11.3697 7.71992 10.7797 7.81993 10.2697 8.12993L7.92973 9.57991C6.84973 10.2499 6.46974 11.6999 7.07974 12.8199C7.32974 13.2699 7.72974 13.6199 8.20974 13.7999C8.59974 13.9399 8.79973 14.3699 8.64973 14.7599C8.53973 15.0699 8.24974 15.2599 7.93974 15.2599Z" />
<path d="M12.66 17.65C12.36 17.65 12.05 17.61 11.75 17.53C10.79 17.28 9.97997 16.65 9.49997 15.77C8.49997 13.97 9.11996 11.62 10.87 10.53L11.13 10.34C11.47 10.1 11.94 10.18 12.18 10.51C12.42 10.85 12.34 11.32 12.01 11.56L11.7 11.78C10.58 12.48 10.2 13.93 10.81 15.04C11.1 15.56 11.57 15.93 12.13 16.08C12.69 16.23 13.28 16.13 13.79 15.82L16.13 14.37C17.21 13.7 17.59 12.25 16.98 11.13C16.73 10.68 16.33 10.33 15.85 10.15C15.46 10.01 15.26 9.57999 15.41 9.18999C15.55 8.79999 15.98 8.59999 16.37 8.74999C17.18 9.04999 17.86 9.63999 18.29 10.41C19.29 12.21 18.67 14.56 16.92 15.65L14.58 17.1C13.99 17.46 13.33 17.65 12.66 17.65Z" />
<path d="M12 22.75C6.07 22.75 1.25 17.93 1.25 12C1.25 6.07 6.07 1.25 12 1.25C17.93 1.25 22.75 6.07 22.75 12C22.75 17.93 17.93 22.75 12 22.75ZM12 2.75C6.9 2.75 2.75 6.9 2.75 12C2.75 17.1 6.9 21.25 12 21.25C17.1 21.25 21.25 17.1 21.25 12C21.25 6.9 17.1 2.75 12 2.75Z" />
</svg>

<?xml version="1.0" encoding="UTF-8"?>
<svg width="24" height="24" viewBox="0 0 24 24" xmlns="http://www.w3.org/2000/svg">
 <path d="m7.9397 15.26c-0.09 0-0.17001-0.01-0.26001-0.05-0.81-0.3-1.49-0.89-1.92-1.66-1-1.8-0.37999-4.15 1.37-5.24l2.34-1.45c0.85996-0.53 1.87-0.68997 2.83-0.43997s1.77 0.87998 2.26 1.76c1 1.8 0.38 4.15-1.37 5.24l-0.26 0.19c-0.34 0.24-0.81 0.16-1.05-0.17-0.24-0.34-0.16-0.81 0.17-1.05l0.31-0.22c1.12-0.7 1.5-2.15 0.89-3.26-0.29-0.52-0.76-0.89001-1.32-1.04s-1.15-0.04999-1.66 0.26001l-2.34 1.45c-1.08 0.66999-1.46 2.12-0.84999 3.24 0.25 0.45 0.65 0.8 1.13 0.98 0.39 0.14 0.58999 0.57 0.43999 0.96-0.11 0.31-0.39999 0.5-0.70999 0.5z"/>
 <path d="m12.66 17.65c-0.3 0-0.61-0.04-0.91-0.12-0.96-0.25-1.77-0.88-2.25-1.76-1-1.8-0.38001-4.15 1.37-5.24l0.26-0.19c0.34-0.24 0.81-0.16 1.05 0.17 0.24 0.34 0.16 0.81-0.17 1.05l-0.31 0.22c-1.12 0.7-1.5 2.15-0.89 3.26 0.29 0.52 0.76 0.89 1.32 1.04s1.15 0.05 1.66-0.26l2.34-1.45c1.08-0.67 1.46-2.12 0.85-3.24-0.25-0.45-0.65-0.8-1.13-0.98-0.39-0.14-0.59-0.57001-0.44-0.96001 0.14-0.39 0.57-0.59 0.96-0.44 0.81 0.3 1.49 0.89 1.92 1.66 1 1.8 0.38 4.15-1.37 5.24l-2.34 1.45c-0.59 0.36-1.25 0.55-1.92 0.55z"/>
 <path d="m12 22.75c-5.93 0-10.75-4.82-10.75-10.75s4.82-10.75 10.75-10.75 10.75 4.82 10.75 10.75-4.82 10.75-10.75 10.75zm0-20c-5.1 0-9.25 4.15-9.25 9.25s4.15 9.25 9.25 9.25 9.25-4.15 9.25-9.25-4.15-9.25-9.25-9.25z"/>
</svg>
